!!!COM:	Anonymous
!!!OTL:	Se je mue / Adieu pour m&eacute;souen
!!!AGN:	Song; Chanson
!!!SCT:	Ano3036
!!!SCA:	Ano3036
!!!SMS:	Dijon Chansonnier
!!!folio:
!!!voices:	4
**kern	**kern	**kern	**kern
*staff4	*staff3	*staff2	*staff1
*Ivox	*Ivox	*Ivox	*Ivox
*I"Tenor2	*I"Tenor1	*I"Contratenor Bassus	*I"Superius
*I'T2	*I'T1	*I'Cb	*I'S
*clefF4	*clefF4	*clefGv2	*clefG2
*k[b-]	*k[b-]	*k[b-]	*k[b-]
*M2/1	*M2/1	*M2/1	*M2/1
*met(C|)	*met(C|)	*met(C|)	*met(C|)
=1-	=1-	=1-	=1-
!	!	!LO:TX:Y=32:t=Se je...	!LO:TX:Y=32:t=Se je...
0r	0r	0G	0g
=2	=2	=2	=2
0r	0r	0E	1g
.	.	.	1g
=3	=3	=3	=3
0r	0r	0D	0f
=4	=4	=4	=4
!LO:TX:Y=32:t=Adieu...	!	!	!
0G	0r	[0d	0g
=5	=5	=5	=5
1G	0r	1d]	0b-
1G	.	1e	.
=6	=6	=6	=6
0F	0r	2f	1a
.	.	2e	.
.	.	2d	[1f
.	.	2c	.
=7	=7	=7	=7
0G	0r	0B-	2f]
.	.	.	2d
.	.	.	1e
=8	=8	=8	=8
1A	0r	1c	1f
1F	.	[1A	1d
=9	=9	=9	=9
0E	0r	1A]	1Bni
.	.	1G	1c#i
=10	=10	=10	=10
1D	1r	1A	[0d
!	!LO:TX:Y=32:t=Adieu...	!	!
1r	1D	1B-	.
=11	=11	=11	=11
1r	1D	1A	0d]
1D	1r	[1d	.
=12	=12	=12	=12
1D	1r	1d]	0r
1r	1G	1B-	.
=13	=13	=13	=13
0r	1B-	[0G	0dd
.	1B-	.	.
=14	=14	=14	=14
0r	1B-	0G_	1dd
.	1B-	.	[1b-
=15	=15	=15	=15
0r	1B-	0G]	1b-]
.	1B-	.	1g
=16	=16	=16	=16
0r	1A	0D	1a
.	1A	.	[1f
=17	=17	=17	=17
0r	1.A	1D	2f]
.	.	.	2g
.	.	[1D	[1a
.	2G	.	.
=18	=18	=18	=18
0r	1F	1D]	1a]
.	1G	[1d	[1g
=19	=19	=19	=19
0r	1A	1d]	2g]
.	.	.	2e
.	1A	1c	1f#i
=20	=20	=20	=20
1r	1G	[0d	1r
1G	1r	.	1g
=21	=21	=21	=21
1B-	0r	0d]	1.g
1B-	.	.	.
.	.	.	2f
=22	=22	=22	=22
1B-	0r	1B-	0d
1B-	.	[1G	.
=23	=23	=23	=23
1B-	0r	1G]	1d
1B-	.	1F	2d
.	.	.	2e
=24	=24	=24	=24
1A	0r	0D	2f
.	.	.	2g
1A	.	.	2a
.	.	.	2b-
=25	=25	=25	=25
1.A	0r	1r	1cc
.	.	1F	2b-
2G	.	.	[2a
=26	=26	=26	=26
1F	0r	1D	2a]
.	.	.	2g
1G	.	1E	[1g
=27	=27	=27	=27
1A	0r	0D	1g]
2A	.	.	1f#i
2A	.	.	.
=28	=28	=28	=28
0G	1r	1r	0g
.	1G	[1d	.
=29	=29	=29	=29
0r	1G	1d]	1r
.	1G	1e	1b-
=30	=30	=30	=30
0r	1F	1f	1a
.	1G	2d	1b-
.	.	[2e	.
=31	=31	=31	=31
0r	1A	2e]	1cc
.	.	2f	.
.	1F	[1d	[1a
=32	=32	=32	=32
0r	0E	2d]	2a]
.	.	2c	2b-
.	.	2c	1g
.	.	2B-	.
=33	=33	=33	=33
1r	1D	0d	1f
1G	1r	.	1d
=34	=34	=34	=34
1G	0r	0B-	1r
1G	.	.	1g
=35	=35	=35	=35
1F	0r	1A	1a
1G	.	1B-	2g
.	.	.	[2e
=36	=36	=36	=36
1A	0r	1c	2e]
.	.	.	2d
1F	.	1A	[1d
=37	=37	=37	=37
0E	0r	1.G	1d]
.	.	.	1c#i
.	.	2F	.
=38	=38	=38	=38
1D	1r	1A	0d
1r	1G	1B-	.
=39	=39	=39	=39
1r	1B-	1G	1r
1G	1r	2r	1d
.	.	[2g	.
=40	=40	=40	=40
1B-	1r	2g]	1d
.	.	2f	.
1r	1B-	1d	1f
=41	=41	=41	=41
1r	1B-	1B-	1g
1G	1B-	[1d	1b-
=42	=42	=42	=42
1G	1B-	2d]	1b-
.	.	2e	.
1F	1c	[1f	[1a
=43	=43	=43	=43
1D	1d	1f]	2a]
.	.	.	2g
1G	1B-	2e	1g
.	.	2d	.
=44	=44	=44	=44
0D	0A	0d	1.f#i
.	.	.	2e
=45	=45	=45	=45
0B- 0dl	0Gl	0dl	0gl
==	==	==	==
*-	*-	*-	*-
!!!RDF**kern: l=long note in original notation
!!!RDF**kern: i=editorial accidental
!!!ENC:	Chris Gage 03-06-2015
!!!END:	2015/03/13/
!!!EED:	Jesse Rodin
!!!EEV:	2016/02/22/
!!!ONB:	Translated from MusicXML and edited on 2016/02/22/ by Craig Sapp
!!muse2ps: C^@{COM}\n@{SMS} @{folio}^v85,85,85,150Q16
